X:26
T:Morgan MacQuarrie's
R:reel
C:Brenda Stubbert
O:Cape Breton Island
S:http://www.cranfordpub.com
Z:psc, (re-formatted,updated 9/19/04)
N:http://www.cranfordpub.com/stubbert
H:                                                        copyrights Stubbert Music, SOCAN
L:1/8
Q:333
M:C|
K:A mixolydian
F|EA,CE A2 AE|FDEC DB,G,F|EA,CE A2 AB|ceBd cAA:|
d|cAeA ceAc|BGdG B2 Gd|cAeA cdea|gedg BAAd|
cAeA ceAc|BGdG B2 GB|=cABG AFGD|(3(EFG) DB, A,2 z|]
